X: 6391
T: Castle Kelly
R: reel
M: 4/4
K: Eminor
E2 GE EFGE|DFBd d2 Bd|E2 GE DEGA|BdAF GEED|
E2 E2 EFGE|DFBd d2 Bd|E2 GE DEGA|(3Bcd AF GE E2||
edBG A2 BA|GEDB d2 Bd|edBG A2 GA|Beed e2 fe|
dBAG ABBA|GEDB d2 Bd|E2 GE DEGA|BdAF GEED||
BEGE BEGE|DFBd d2 Bd|E2 GE BEGA|BdAF GEED|
E2 E2 EFGE|DFBd d2 Bd|E2 GA DEGA|(3Bcd AF GE E2||
edBG ABBA|GEDB d2 Bd|edBG A2 GA|Beed effe|
edBG ABBA|GEDB d2 Bd|BEGE DEGA|BdAF GE E2||

